X:59
T: Graserin und Reiter
N: Q0149G
O: Mitteleuropa, Deutschland / Frankreich, Lothringen
N: Vierte Zeile = Refrain auf sinnfreie Silben.
R: Ballade, Verfuehrung, Verlassen des Elternhauses
M: 2/4
L: 1/8
K: G
D | G2FG | A2G
A | BGdB | A3z
A2dc | BAGE | D3z
G2A2 | B2BB | A2
B2 | dcBA | G3

